Adwaita++/mimetypes/symbolic/x-office-address-book-symbolic.svg

<svg height="16" width="16" xmlns="http://www.w3.org/2000/svg">
  <g fill="#474747">
    <path d="m3 1c-2 0-2 2-2 2h11v11h-11s0 2 2 2h9s.459.014.947-.23c.489-.246 1.053-.938 1.053-1.77v-11c0-.833-.564-1.525-1.053-1.77-.487-.244-.947-.23-.947-.23z" fill-rule="evenodd"/>
    <path d="m.5 4h2a.499.499 0 1 1 0 1h-2a.499.499 0 1 1 0-1zm0 2h2a.499.499 0 1 1 0 1h-2a.499.499 0 1 1 0-1zm0 2h2a.499.499 0 1 1 0 1h-2a.499.499 0 1 1 0-1zm0 2h2a.499.499 0 1 1 0 1h-2a.499.499 0 1 1 0-1zm0 2h2a.499.499 0 1 1 0 1h-2a.499.499 0 1 1 0-1z"/>
    <path d="m7.285 5.004a3.506 3.506 0 0 0 -3.258 3.936 3.506 3.506 0 0 0 3.488 3.06c.85 0 1.644-.276 1.644-.276l-.316-.949s-.706.225-1.331.225h-.002a2.494 2.494 0 0 1 -2.49-2.186 2.495 2.495 0 0 1 1.867-2.738 2.797 2.797 0 0 1 1.808.164c.526.241.89.63 1.004 1.059.124.464.087.97-.084 1.275-.098.176-.403.354-.615.426v-.5c0-.823-.677-1.5-1.5-1.5-.822 0-1.5.677-1.5 1.5 0 .822.678 1.5 1.5 1.5.176 0 .343-.037.5-.094v.045l.45.047c.941.096 1.692-.317 2.038-.936.347-.618.355-1.357.178-2.021-.208-.784-.82-1.372-1.554-1.709a3.75 3.75 0 0 0 -1.827-.328zm.215 2.996c.282 0 .5.218.5.5s-.218.5-.5.5a.493.493 0 0 1 -.5-.5c0-.282.218-.5.5-.5z"/>
  </g>
</svg>

<svg xmlns="http://www.w3.org/2000/svg" width="16" height="16">
    <g fill="#474747">
        <path d="M3 1C1 1 1 3 1 3h11v11H1s0 2 2 2h9s.459.014.947-.23C13.436 15.524 14 14.832 14 14V3c0-.833-.564-1.525-1.053-1.77C12.46.986 12 1 12 1z" style="line-height:normal;font-variant-ligatures:normal;font-variant-position:normal;font-variant-caps:normal;font-variant-numeric:normal;font-variant-alternates:normal;font-feature-settings:normal;text-indent:0;text-align:start;text-decoration-line:none;text-decoration-style:solid;text-decoration-color:#000;text-transform:none;text-orientation:mixed;shape-padding:0;isolation:auto;mix-blend-mode:normal" color="#000" font-weight="400" font-family="sans-serif" white-space="normal" overflow="visible" fill-rule="evenodd"/>
        <path d="M.5 4h2a.499.499 0 1 1 0 1h-2a.499.499 0 1 1 0-1zM.5 6h2a.499.499 0 1 1 0 1h-2a.499.499 0 1 1 0-1zM.5 8h2a.499.499 0 1 1 0 1h-2a.499.499 0 1 1 0-1zM.5 10h2a.499.499 0 1 1 0 1h-2a.499.499 0 1 1 0-1zM.5 12h2a.499.499 0 1 1 0 1h-2a.499.499 0 1 1 0-1z"/>
        <path d="M7.285 5.004A3.506 3.506 0 0 0 4.027 8.94 3.506 3.506 0 0 0 7.515 12c.85 0 1.644-.276 1.644-.276l-.316-.949S8.137 11 7.512 11H7.51a2.494 2.494 0 0 1-2.49-2.186 2.495 2.495 0 0 1 1.867-2.738 2.797 2.797 0 0 1 1.808.164c.526.241.89.63 1.004 1.059.124.464.087.97-.084 1.275-.098.176-.403.354-.615.426v-.5C9 7.677 8.323 7 7.5 7 6.678 7 6 7.677 6 8.5c0 .822.678 1.5 1.5 1.5.176 0 .343-.037.5-.094v.045l.45.047c.941.096 1.692-.317 2.038-.936.347-.618.355-1.357.178-2.021-.208-.784-.82-1.372-1.554-1.709a3.75 3.75 0 0 0-1.827-.328zM7.5 8c.282 0 .5.218.5.5 0 .282-.218.5-.5.5a.493.493 0 0 1-.5-.5c0-.282.218-.5.5-.5z" style="line-height:normal;font-variant-ligatures:normal;font-variant-position:normal;font-variant-caps:normal;font-variant-numeric:normal;font-variant-alternates:normal;font-feature-settings:normal;text-indent:0;text-align:start;text-decoration-line:none;text-decoration-style:solid;text-decoration-color:#000;text-transform:none;text-orientation:mixed;shape-padding:0;isolation:auto;mix-blend-mode:normal" color="#000" font-weight="400" font-family="sans-serif" white-space="normal" overflow="visible"/>
    </g>
</svg>
